X: 3015
T: SIR JAMES DOUGLAS
C: Math. Gow
Q:"Strathspey."
R: Strathspey.
%R:strathspey
B: James Kerr "Merry Melodies" v.3 p.4 #15
Z: 2016 John Chambers <jc:trillian.mit.edu>
M: C
L: 1/16
K: D
uB2 |:\
A3DF3D A3DD3B | A3DF3D FGA2 TB4 |\
A3DF3D A3DF3F | G3BF3B EEE2 TB4 ::\
Ad3d3f e3dc3B |
Ad3d3f e3fg3e |\
[1 Ad3d3f e3cd3A | B3dF3d EEE2 TB4 :|\
[2 fa3 ef3 df3 Bd3 | A3dF3d EEE2 TB4 |]

%%sep 1 1 500
%%sep 1 1 500

